src/images/clients/manscaped.svg

<svg width="178" height="34" viewBox="0 0 178 34" fill="none" xmlns="http://www.w3.org/2000/svg">
<path d="M84.5784 26.6114V7.4854C84.5784 3.11021 87.2871 0.877471 91.1863 0.965181H92.5884C96.4825 0.965181 99.2376 2.93479 99.2376 7.2687V10.5939C99.2376 11.4685 98.6688 11.9509 97.7091 12.1263L94.6431 12.7931V7.22227C94.6721 6.91415 94.6312 6.60347 94.5233 6.31339C94.4155 6.0233 94.2436 5.7613 94.0204 5.54692C93.7972 5.33253 93.5285 5.17129 93.2343 5.07523C92.9402 4.97917 92.6281 4.95075 92.3214 4.99211H91.4507C91.1463 4.95156 90.8366 4.98092 90.5452 5.07797C90.2538 5.17501 89.9884 5.33718 89.7691 5.55216C89.5497 5.76715 89.3823 6.02929 89.2794 6.31867C89.1766 6.60806 89.141 6.91708 89.1754 7.22227V26.8745C89.141 27.1797 89.1766 27.4887 89.2794 27.7781C89.3823 28.0675 89.5497 28.3296 89.7691 28.5446C89.9884 28.7596 90.2538 28.9218 90.5452 29.0188C90.8366 29.1158 91.1463 29.1452 91.4507 29.1047H92.3265C92.6332 29.146 92.9453 29.1176 93.2395 29.0215C93.5337 28.9255 93.8024 28.7642 94.0256 28.5498C94.2488 28.3355 94.4207 28.0735 94.5285 27.7834C94.6363 27.4933 94.6773 27.1826 94.6483 26.8745V23.7659H99.2415L99.1899 26.6114C99.1899 30.9453 96.4812 33.12 92.5806 33.12H91.1502C87.2755 33.12 84.5784 30.9337 84.5784 26.6114ZM65.1764 26.6114L65.1377 23.7659H69.7334L69.7799 26.8745C69.7799 28.3178 70.7795 29.1047 72.2822 29.1047H73.158C73.4739 29.1489 73.7956 29.1239 74.1009 29.0314C74.4062 28.9389 74.6876 28.781 74.9258 28.5689C75.164 28.3567 75.3532 28.0953 75.4802 27.8027C75.6073 27.5101 75.6692 27.1934 75.6616 26.8745V23.8549C75.6616 20.8767 73.9087 20.3981 70.1888 18.297C65.5053 15.8462 65.1583 14.3577 65.1583 10.9886V7.48282C65.1583 3.10763 67.9109 0.874891 71.8114 0.962601H73.2135C77.1088 0.962601 80.0407 3.15535 80.0407 7.48282V10.1528C80.0407 11.0273 79.4718 11.5097 78.5083 11.6852L75.4436 12.3417V7.22227C75.4436 5.77892 74.4427 4.99211 72.94 4.99211H72.0642C71.7574 4.95025 71.4451 4.9783 71.1507 5.07419C70.8563 5.17007 70.5874 5.33129 70.3641 5.54578C70.1408 5.76028 69.9689 6.0225 69.8612 6.31282C69.7536 6.60314 69.713 6.91404 69.7425 7.22227V10.8996C69.7425 13.0008 70.7924 13.6522 72.2435 14.5319L76.0744 16.4563C79.7014 18.2518 80.229 20.3078 80.229 23.3274V26.6114C80.229 30.9453 77.2971 33.12 73.4018 33.12H71.9636C68.0915 33.12 65.1764 30.9337 65.1764 26.6114ZM167.63 32.9149H159.227V1.18188H167.63C171.525 1.09417 174.239 3.32819 174.239 7.70596V26.3921C174.239 30.6873 171.626 32.9175 167.849 32.9175L167.63 32.9149ZM163.822 28.8131H167.366C167.671 28.8535 167.981 28.8239 168.272 28.7267C168.564 28.6294 168.829 28.467 169.049 28.2517C169.268 28.0365 169.435 27.7741 169.538 27.4845C169.641 27.195 169.676 26.8857 169.642 26.5804V7.45444C169.676 7.14921 169.641 6.84015 169.538 6.55072C169.435 6.26129 169.267 5.99909 169.048 5.78401C168.829 5.56894 168.563 5.40664 168.272 5.30943C167.981 5.21223 167.671 5.18266 167.366 5.22299H163.822V28.8131ZM142.058 32.9149V1.18188H154.881V5.56093H146.566V28.5358H154.881V32.9136L142.058 32.9149ZM122.703 32.9149V1.18188H131.103C134.999 1.09417 137.711 3.32819 137.711 7.70596V15.4954C137.711 19.8693 135.003 22.1033 131.103 22.0169H127.954V19.4785C127.954 18.2505 128.392 17.8584 129.53 17.8584H130.843C131.148 17.8989 131.458 17.8695 131.749 17.7723C132.041 17.6752 132.307 17.5128 132.526 17.2976C132.746 17.0824 132.914 16.8199 133.017 16.5302C133.12 16.2405 133.155 15.9312 133.121 15.6257V7.44412C133.154 7.13888 133.118 6.82998 133.015 6.54084C132.911 6.2517 132.743 5.98989 132.524 5.77524C132.304 5.5606 132.039 5.39875 131.747 5.30195C131.456 5.20515 131.146 5.17594 130.842 5.21654H127.297V32.9149H122.703ZM115.036 32.9149L113.809 26.0864H108.15L108.677 23.3777C108.851 22.4129 109.336 21.9331 110.208 21.9331H113.056L110.646 8.5779L106.182 32.9149H101.678L107.891 1.18188H113.536L119.542 32.9123L115.036 32.9149ZM56.9819 32.9149L49.3228 12.5687V32.9149H45.0288V1.18188H49.0983L56.4957 20.8031V1.18188H60.796V32.9123L56.9819 32.9149ZM37.3555 32.9149L36.1276 26.0864H30.4806L31.0068 23.3777C31.1822 22.4129 31.6659 21.9331 32.5405 21.9331H35.3859L32.9777 8.5779L28.5058 32.9149H24.0029L30.2213 1.18188H35.8657L41.8597 32.9123L37.3555 32.9149ZM16.8468 32.9149V12.3443L12.1685 26.129H8.8871L4.20235 12.3443V32.9149H0V1.18188H4.20235L10.5936 18.4272L16.8507 1.18188H21.0504V32.9123L16.8468 32.9149ZM147.221 18.7768V16.0681C147.221 14.8427 147.66 14.448 148.8 14.448H154.138V18.7807L147.221 18.7768ZM176.968 3.3153L176.229 1.52885V3.3153H175.99V1.18188H176.35L177.007 2.83676L177.643 1.18188H178V3.30756H177.75V1.52885L177.047 3.3153H176.968ZM174.873 3.30756L174.855 1.39599H174.239V1.18188H175.74V1.39599H175.121V3.30756H174.873Z" fill="black"/>
</svg>

<svg xmlns="http://www.w3.org/2000/svg" width="178" height="34" fill="none" viewBox="0 0 178 34"><path fill="#000" d="M84.578 26.611V7.485c0-4.375 2.71-6.608 6.608-6.52h1.402c3.895 0 6.65 1.97 6.65 6.304v3.325c0 .875-.57 1.357-1.529 1.532l-3.066.667v-5.57a2.055 2.055 0 0 0-2.322-2.23h-.87a2.021 2.021 0 0 0-2.276 2.23v19.652a2.023 2.023 0 0 0 2.276 2.23h.876a2.057 2.057 0 0 0 2.321-2.23v-3.11h4.594l-.052 2.846c0 4.334-2.709 6.509-6.61 6.509h-1.43c-3.875 0-6.572-2.186-6.572-6.509Zm-19.402 0-.038-2.845h4.595l.047 3.109c0 1.443 1 2.23 2.502 2.23h.876a2.2 2.2 0 0 0 2.504-2.23v-3.02c0-2.978-1.753-3.457-5.473-5.558-4.684-2.45-5.03-3.94-5.03-7.308V7.483c0-4.375 2.752-6.608 6.652-6.52h1.402c3.896 0 6.828 2.192 6.828 6.52v2.67c0 .874-.57 1.357-1.533 1.532l-3.064.657v-5.12c0-1.443-1.001-2.23-2.504-2.23h-.876a2.053 2.053 0 0 0-2.321 2.23V10.9c0 2.1 1.05 2.752 2.5 3.632l3.831 1.924c3.627 1.796 4.155 3.852 4.155 6.871v3.284c0 4.334-2.932 6.509-6.827 6.509h-1.438c-3.873 0-6.788-2.186-6.788-6.509Zm102.454 6.304h-8.403V1.182h8.403c3.895-.088 6.609 2.146 6.609 6.524v18.686c0 4.295-2.613 6.525-6.39 6.525l-.219-.002Zm-3.808-4.102h3.544a2.022 2.022 0 0 0 2.276-2.233V7.454a2.026 2.026 0 0 0-1.37-2.145 2.023 2.023 0 0 0-.906-.086h-3.544v23.59Zm-21.764 4.102V1.182h12.823V5.56h-8.315v22.975h8.315v4.378h-12.823Zm-19.355 0V1.182h8.4c3.896-.088 6.608 2.146 6.608 6.524v7.79c0 4.373-2.708 6.607-6.608 6.52h-3.149V19.48c0-1.229.438-1.62 1.576-1.62h1.313a2.02 2.02 0 0 0 2.174-1.329 2.03 2.03 0 0 0 .104-.904V7.444a2.039 2.039 0 0 0-.106-.903 2.024 2.024 0 0 0-2.173-1.324h-3.545v27.698h-4.594Zm-7.667 0-1.227-6.829h-5.659l.527-2.708c.174-.965.659-1.445 1.531-1.445h2.848l-2.41-13.355-4.464 24.337h-4.504l6.213-31.733h5.645l6.006 31.73-4.506.003Zm-58.054 0-7.66-20.346v20.346H45.03V1.182h4.07l7.397 19.621V1.182h4.3v31.73l-3.814.003Zm-19.627 0-1.227-6.829H30.48l.526-2.708c.175-.965.659-1.445 1.534-1.445h2.845L32.978 8.578l-4.472 24.337h-4.503L30.22 1.182h5.645l5.994 31.73-4.505.003Zm-20.508 0v-20.57l-4.679 13.784h-3.28L4.201 12.344v20.57H0V1.183h4.202l6.392 17.245L16.85 1.182h4.2v31.73l-4.204.003ZM147.22 18.777v-2.709c0-1.225.439-1.62 1.579-1.62h5.338v4.333l-6.917-.004Zm29.747-15.462-.739-1.786v1.786h-.239V1.182h.36l.657 1.655.636-1.655H178v2.126h-.25v-1.78l-.703 1.787h-.079Zm-2.095-.007-.018-1.912h-.616v-.214h1.501v.214h-.619v1.912h-.248Z"/></svg>
